Sources/FrostedUI/Resources/Icons.xcassets/sparkleMultiple20.imageset/sparkle-multiple-20.svg

<svg width="20" height="20" viewBox="0 0 20 20" fill="none" xmlns="http://www.w3.org/2000/svg" data-fui-icon="true">
  <path
    d="M7 14C7 12.6187 4.38125 10 3 10 4.38125 10 7 7.91459 7 6 7 7.91459 9.08541 10 11 10 9.08541 10 7 12.6187 7 14zM13 8C13 7.30937 11.6906 6 11 6 11.6906 6 13 4.95729 13 4 13 4.95729 14.0427 6 15 6 14.0427 6 13 7.30937 13 8zM13 16C13 15.3094 11.6906 14 11 14 11.6906 14 13 12.9573 13 12 13 12.9573 14.0427 14 15 14 14.0427 14 13 15.3094 13 16z"
    stroke="currentColor"
    stroke-width="1.5"
    stroke-linecap="round"
    stroke-linejoin="round"
  />
</svg>

<svg xmlns="http://www.w3.org/2000/svg" width="20" height="20" fill="none" data-fui-icon="true" viewBox="0 0 20 20"><path stroke="currentColor" stroke-linecap="round" stroke-linejoin="round" stroke-width="1.5" d="M7 14c0-1.381-2.619-4-4-4 1.381 0 4-2.085 4-4 0 1.915 2.085 4 4 4-1.915 0-4 2.619-4 4m6-6c0-.69-1.31-2-2-2 .69 0 2-1.043 2-2 0 .957 1.043 2 2 2-.957 0-2 1.31-2 2m0 8c0-.69-1.31-2-2-2 .69 0 2-1.043 2-2 0 .957 1.043 2 2 2-.957 0-2 1.31-2 2"/></svg>
